Yosa-Max/places/16x16/folder-add.svg

<?xml version="1.0" encoding="UTF-8"?>
<svg id="svg5" version="1.1" viewBox="0 0 16 16" xmlns="http://www.w3.org/2000/svg">
 <defs id="defs3051">
  <style id="current-color-scheme" type="text/css">.ColorScheme-Text {
        color:#4d4d4d;
      }</style>
 </defs>
 <path id="path823" d="m2 2v12h12v-10h-4.9921874l-2-2-0.00781 0.00781v-0.00781h-4zm1 1h3.5917969l1.0019531 1h-0.59375v0.00781l-0.00781-0.00781-2 2h-1.99219zm4.5 4.5h1v2h2v1h-2v2h-1v-2h-2v-1h2z" style="fill:#4d4d4d"/>
</svg>

<?xml version="1.0" encoding="UTF-8" standalone="no"?>
<svg
   xmlns:dc="http://purl.org/dc/elements/1.1/"
   xmlns:cc="http://creativecommons.org/ns#"
   xmlns:rdf="http://www.w3.org/1999/02/22-rdf-syntax-ns#"
   xmlns:svg="http://www.w3.org/2000/svg"
   xmlns="http://www.w3.org/2000/svg"
   id="svg5"
   version="1.1"
   viewBox="0 0 16 16">
  <metadata
     id="metadata9">
    <rdf:RDF>
      <cc:Work
         rdf:about="">
        <dc:format>image/svg+xml</dc:format>
        <dc:type
           rdf:resource="http://purl.org/dc/dcmitype/StillImage" />
        <dc:title></dc:title>
      </cc:Work>
    </rdf:RDF>
  </metadata>
  <defs
     id="defs3051">
    <style
       id="current-color-scheme"
       type="text/css">
      .ColorScheme-Text {
        color:#4d4d4d;
      }
      </style>
  </defs>
  <path
     id="path823"
     d="m 2,2 v 1 3 1 6 1 H 14 V 13 6 5 4 H 9.0078126 l -2,-2 -0.00781,0.00781 V 2 h -4 z M 3,3 H 6.5917969 L 7.59375,4 H 7 V 4.00781 L 6.99219,4 l -2,2 H 3 Z m 4.5,4.5 h 1 v 2 h 2 v 1 h -2 v 2 h -1 v -2 h -2 v -1 h 2 z"
     style="fill:#4d4d4d;fill-opacity:1;stroke:none" />
</svg>
